!!!!SEGMENT: pl-kk--kk-i-7--095_anonim--regina-caeli.krn
!!!cenid: 16xx:934
!!!COM: Anonim
!!!COM-rismid: pe30004985
!!!CDT:
!!!CNT:
!!!OTL: Regina caeli
!!!PDT:
!!!AGN: Sacred
!!!SMS-siglum: PL-Kk
!!!SMS-shelfmark: Kk.I.7
!!!SMS-shelfwork: 095 W
!!!SMS-variant:
!!!SMS-altvar:
!!!NIFC-rismid: 300258172
!!!URL-scan: http://repozytorium.nifc.pl/skany/pl-kk-nut--i-7
!!!ONB-nifc: UWAGA: C (skan 0074 , s.141), A (brak), T (0238, s.139), B (0326, s.138). Następny utwór: Omni die dic Mariae
**kern	**text	**fba	**kern	**text	**kern	**kern	**text
*part4	*part4	*	*part3	*part3	*part2	*part1	*part1
*staff4	*staff4	*	*staff3	*staff3	*staff2	*staff1	*staff1
*I"BASSVS.	*	*	*I"TENOR.	*	*I"ALTVS.	*I"CANTVS.	*
*I'B	*	*	*I'T	*	*I'A	*I'C	*
*clefF4	*	*	*clefC4	*	*clefC4	*clefC1	*
*k[]	*	*	*k[]	*	*k[]	*k[]	*
*C:	*	*	*C:	*	*C:	*C:	*
*M2/1	*	*	*M2/1	*	*M2/1	*M2/1	*
*met(C|)	*	*	*met(C|)	*	*met(C|)	*met(C|)	*
=1-	=1-	=1-	=1-	=1-	=1-	=1-	=1-
!LO:TX:t=P:problem:kreska pseudotaktowa	!	!	!	!	!	!	!
!LO:TX:t=P:problem: Inicjał "R" na pięciolinii przed kluczem	!	!	!LO:TX:t=P:problem: Inicjał "R" na pięciolinii przed kluczem	!	!	!LO:TX:t=P:problem: Inicjał "R" na pięciolinii przed kluczem	!
!LO:TX:Bi:a:t=II. Brevè. Opus Nobile.	!	!	!	!	!	!LO:TX:t=P:problem:kreska pseudotaktowa	!
!	!	!	!	!	!LO:TX:t=P:problem:brak głosu w źródle	!	!
1r	.	.	2r	.	0ryy	1r	.
*	*	*	*2\right	*	*	*	*
!	!	!	!LO:TX:t=P:problem:kreska pseudotaktowa	!	!	!	!
.	.	.	2c\	Re-	.	.	.
!	!	!	!	!	!	!LO:TX:t=P:problem:kreska pseudotaktowa	!
2r	.	.	4A\	-gi-	.	1e	Re-
.	.	.	4B\	.	.	.	.
*2\right	*	*	*	*	*	*	*
!LO:TX:t=P:problem:kreska pseudotaktowa	!	!	!	!	!	!	!
2A\	Re-	.	1c\	.	.	.	.
=2-	=2-	=2-	=2-	=2-	=2-	=2-	=2-
!LO:TX:t=P:problem:kreska pseudotaktowa	!	!	!	!	!	!	!
1G	-gi-	4	.	.	0ryy	1g	-gi-
!	!	!	!LO:TX:t=P:problem:kreska pseudotaktowa	!	!	!	!
.	.	3	2B,\	-na	.	.	.
2C/	-na	.	2c\	cae-	.	2e,/	-na
*	*	*	*	*	*	*2\right	*
!	!	!	!	!	!	!LO:TX:t=P:problem:kreska pseudotaktowa	!
1c\	cae-	3	2e\	.	.	2ee\	cae-
=3-	=3-	=3-	=3-	=3-	=3-	=3-	=3-
.	.	2	(>4d\	-li	0ryy	(>4ff\	-li
.	.	.	4c\)	.	.	4ee\)	.
4B\	-li	.	(>4d\	lae-	.	(>4ff\	lae-
!LO:TX:t=P:problem:kreska pseudotaktowa	!	!	!LO:TX:t=P:problem:kreska pseudotaktowa	!	!	!LO:TX:t=P:problem:kreska pseudotaktowa	!
4B\	lae-	.	4e\)	.	.	4gg\)	.
4c\	-ta-	.	2.c\	-ta-	.	4ee\	-ta-
4B\	.	.	.	.	.	4dd\	.
4A\	.	.	.	.	.	4cc\	.
!LO:TX:t=P:problem:kreska pseudotaktowa	!	!	!LO:TX:t=P:problem:kreska pseudotaktowa	!	!	!LO:TX:t=P:problem:kreska pseudotaktowa	!
4G\	.	.	4G/	.	.	4b\	.
=4-	=4-	=4-	=4-	=4-	=4-	=4-	=4-
4F\	.	.	4A/	.	0ryy	2a\	.
4E\	.	.	4G/	.	.	.	.
!LO:TX:t=P:problem:kreska pseudotaktowa	!	!	!	!	!	!	!
2D/	.	.	4A/	.	.	2.dd\	.
!	!	!	!LO:TX:t=P:problem:kreska pseudotaktowa	!	!	!	!
.	.	.	4F/	.	.	.	.
2C,/	-re	9	2G/	.	.	.	.
.	.	.	.	.	.	8cc\L	.
.	.	.	.	.	.	8b\J	.
!LO:TX:t=P:problem:kreska pseudotaktowa	!	!	!	!	!	!LO:TX:t=P:problem:kreska pseudotaktowa	!
2C/	lae-	8	4G,/	-[re]	.	[<2cc\	.
!	!	!	!LO:TX:t=P:problem:kreska pseudotaktowa	!	!	!	!
.	.	.	4G/	lae-	.	.	.
=5-	=5-	=5-	=5-	=5-	=5-	=5-	=5-
!	!	!	!	!	!	!LO:N:xstem:cue	!
1G	-ta-	4	1G	-ta-	0ryy	4cc\]	.
.	.	3	.	.	.	8b\L	.
.	.	.	.	.	.	8a\J	.
!	!	!	!	!	!	!LO:TX:t=P:problem:kreska pseudotaktowa	!
.	.	.	.	.	.	2b\	.
!	!	!	!	!	!	!LO:TX:t=P:problem:kreska pseudotaktowa	!
2C,/	-re	.	2G,/	-re	.	1cc	-re,
4c\	al-	.	4e\	al-	.	.	.
!LO:TX:t=P:problem:kreska pseudotaktowa	!	!	!LO:TX:t=P:problem:kreska pseudotaktowa	!	!	!	!
4B\	.	.	4d\	.	.	.	.
=6-	=6-	=6-	=6-	=6-	=6-	=6-	=6-
4A\	.	.	4c\	.	0ryy	2r	.
4G\	.	.	4B\	.	.	.	.
!LO:TX:t=P:problem:kreska pseudotaktowa	!	!	!	!	!	!LO:TX:t=P:problem:kreska pseudotaktowa	!
2F\	-le-	.	2A\	-le-	.	[<2cc\	al-
1G	-lu-	4	1G	-lu-	.	2cc\]	.
!	!	!	!	!	!	!LO:TX:t=P:problem:kreska pseudotaktowa	!
.	.	3	.	.	.	[<2b\	-le-
=7-	=7-	=7-	=7-	=7-	=7-	=7-	=7-
!LO:TX:t=P:problem:kreska pseudotaktowa	!	!	!LO:TX:t=P:problem:kreska pseudotaktowa	!	!	!	!
1A	-ia	9	1c	.	0ryy	2b\]	.
!	!	!	!	!	!	!LO:TX:t=P:problem:kreska pseudotaktowa	!
.	.	8	.	.	.	2a\	-lu-
2.G\	al-	5	2.Bn\	-ia	.	4b\	-ia
.	.	6	.	.	.	4cc\	.
!	!	!	!	!	!	!LO:TX:t=P:problem:kreska pseudotaktowa	!
.	.	.	.	.	.	[<2dd\	al-
!LO:TX:t=P:problem:kreska pseudotaktowa	!	!	!	!	!	!	!
4F\	.	.	4A,\	.	.	.	.
=8-	=8-	=8-	=8-	=8-	=8-	=8-	=8-
2.E\	-le-	7	2G/	al-	0ryy	2dd\]	.
!	!	!	!LO:TX:t=P:problem:kreska pseudotaktowa	!	!	!LO:TX:t=P:problem:kreska pseudotaktowa	!
.	.	6	2G/	-le-	.	[<2cc\	-le-
.	.	5	.	.	.	.	.
4F\	.	.	.	.	.	.	.
!LO:TX:t=P:problem:kreska pseudotaktowa	!	!	!LO:TX:t=P:problem:kreska pseudotaktowa	!	!	!	!
1G	-lu-	4	1G	-lu-	.	2cc\]	.
!	!	!	!	!	!	!LO:TX:t=P:problem:kreska pseudotaktowa	!
.	.	3	.	.	.	2b\	-lu-
=9-	=9-	=9-	=9-	=9-	=9-	=9-	=9-
!	!	!	!LO:SIC:v:s=2c	!	!	!LO:TX:t=P:problem:kreska pseudotaktowa	!
2C,/	-ia.	.	2B,\	-ia.	0ryy	1cc,	-ia
1c	Qui-	.	1e	Qui-	.	.	.
.	.	.	.	.	.	2g/	qui-
!	!	!	!	!	!	!LO:TX:t=P:problem:kreska pseudotaktowa	!
4c\	-a	.	4e\	-a	.	2g/	-a
!	!	!	!LO:TX:t=P:problem:kreska pseudotaktowa	!	!	!	!
!LO:TX:t=P:problem:kreska pseudotaktowa	!	!	!LO:TX:a:Bi:t=II.	!	!	!	!
!	!	!	!LO:TX:t=P:problem:notatka "II." za kreską	!	!	!	!
4B\	.	.	4d\	.	.	.	.
!	!	!	!LO:LB:g=original	!	!	!	!
=10-	=10-	=10-	=10-	=10-	=10-	=10-	=10-
*	*ij	*	*	*	*	*	*
!	!	!	!	!	!	!LO:TX:a:Bi:t=II.	!
!	!	!	!	!	!	!LO:TX:t=P:problem:kreska pseudotaktowa	!
!	!	!	!	!	!	!LO:TX:t=P:problem:notatka "II." za kreską	!
1A	Qui-	.	1c	qui-	0ryy	1a	qui-
!	!	!	!	!	!	!LO:LB:g=original	!
2G,\	-a	.	2B,\	-a	.	2b\	-a
*	*Xij	*	*	*	*	*	*
!LO:TX:t=P:problem:kreska pseudotaktowa	!	!	!LO:TX:t=P:problem:kreska pseudotaktowa	!	!	!LO:TX:t=P:problem:kreska pseudotaktowa	!
2C/	quem	.	2c\	quem	.	[<2gg\	quem
!LO:LB:g=original	!	!	!	!	!	!	!
=11-	=11-	=11-	=11-	=11-	=11-	=11-	=11-
4F\	me-	9	(>4A\	me-	0ryy	2gg\]	.
4G\	.	8	4B\)	.	.	.	.
!	!	!	!	!	!	!LO:TX:t=P:problem:kreska pseudotaktowa	!
4A\	-ru-	.	(>4c\	-ru-	.	[<2ff\	me-
!LO:TX:t=P:problem:kreska pseudotaktowa	!	!	!LO:TX:t=P:problem:kreska pseudotaktowa	!	!	!	!
4B\	.	.	4d\)	.	.	.	.
2c\	-iſ-	.	2c\	-iſ-	.	2ff\]	.
!	!	!	!	!	!	!LO:TX:t=P:problem:kreska pseudotaktowa	!
4C/	-ti	4	4c\	-ti	.	[<2ee\	-rui-
.	.	3	.	.	.	.	.
!LO:TX:t=P:problem:kreska pseudotaktowa	!	!	!LO:TX:t=P:problem:kreska pseudotaktowa	!	!	!	!
4C/	por-	.	4c\	por-	.	.	.
=12-	=12-	=12-	=12-	=12-	=12-	=12-	=12-
4D\	-ta-	9	1A	-ta-	0ryy	2ee\]	.
4E\	.	.	.	.	.	.	.
!	!	!	!	!	!	!LO:TX:t=P:problem:kreska pseudotaktowa	!
4F\	.	8	.	.	.	[<2dd\	-sti
!LO:TX:t=P:problem:kreska pseudotaktowa	!	!	!	!	!	!	!
4G\	.	.	.	.	.	.	.
4A\	.	.	2A,/	-re	.	2dd\]	.
4G\	.	4	.	.	.	.	.
!	!	!	!LO:TX:t=P:problem:kreska pseudotaktowa	!	!	!LO:TX:t=P:problem:kreska pseudotaktowa	!
4A\	.	3	2A/	quem	.	[<2cc\	por-
!LO:TX:t=P:problem:kreska pseudotaktowa	!	!	!	!	!	!	!
4E\	.	.	.	.	.	.	.
=13-	=13-	=13-	=13-	=13-	=13-	=13-	=13-
4F\	.	6 5	2A/	me-	0ryy	2cc\]	.
4D\	.	.	.	.	.	.	.
!	!	!	!LO:TX:t=P:problem:kreska pseudotaktowa	!	!	!LO:TX:t=P:problem:kreska pseudotaktowa	!
4G\	.	.	2G/	-ru-	.	2b\	.
!LO:TX:t=P:problem:kreska pseudotaktowa	!	!	!	!	!	!	!
4F\	.	.	.	.	.	.	.
4E\	.	6	2G/	-iſ-	.	1.cc	-ta-
4D\	.	.	.	.	.	.	.
4E\	.	.	4G,/	-ti	.	.	.
!LO:TX:t=P:problem:kreska pseudotaktowa	!	!	!	!	!	!	!
4C\	.	.	4G/	por-	.	.	.
=14-	=14-	=14-	=14-	=14-	=14-	=14-	=14-
1G	.	4	1G	-ta-	0ryy	.	.
!	!	!	!	!	!	!LO:TX:t=P:problem:kreska pseudotaktowa	!
.	.	3	.	.	.	2b\	.
2C,/	-re	.	2G,/	-re	.	2cc,\	-re
!	!	!	!	!	!	!LO:TX:t=P:problem:kreska pseudotaktowa	!
4c\	por-	.	(>4e\	por-	.	2g/	por-
!LO:TX:t=P:problem:kreska pseudotaktowa	!	!	!LO:TX:t=P:problem:kreska pseudotaktowa	!	!	!	!
4B\	.	.	4d\)	.	.	.	.
=15-	=15-	=15-	=15-	=15-	=15-	=15-	=15-
4A\	-ta-	.	4c\	-ta-	0ryy	4a\	-ta-
4G\	.	.	4B\	.	.	4b\	.
!LO:TX:t=P:problem:kreska pseudotaktowa	!	!	!	!	!	!	!
2F\	.	.	2A\	.	.	1cc	.
!	!	!	!LO:TX:t=P:problem:kreska pseudotaktowa	!	!	!	!
1G	.	.	1G	.	.	.	.
!	!	!	!	!	!	!LO:TX:t=P:problem:kreska pseudotaktowa	!
.	.	.	.	.	.	2b\	.
=16-	=16-	=16-	=16-	=16-	=16-	=16-	=16-
!	!	!	!	!	!	!LO:TX:t=P:problem:kreska pseudotaktowa	!
2E,\	-re	.	2G,/	-re	0ryy	1cc,	-re
!LO:TX:t=P:problem:kreska pseudotaktowa	!	!	!	!	!	!	!
[<2A\	al-	.	1c	por-	.	.	.
!LO:N:xstem:cue	!	!	!	!	!	!	!
4A\]	.	.	.	.	.	4cc\	al-
4G\	.	.	.	.	.	4b\	.
!	!	!	!LO:TX:t=P:problem:kreska pseudotaktowa	!	!	!	!
4F\	.	.	[>2c\	-ta-	.	4a\	.
!LO:TX:t=P:problem:kreska pseudotaktowa	!	!	!	!	!	!LO:TX:t=P:problem:kreska pseudotaktowa	!
4E\	.	.	.	.	.	4g\	.
=17-	=17-	=17-	=17-	=17-	=17-	=17-	=17-
2D\	.	.	2c\]	.	0ryy	2f/	.
!	!	!	!LO:TX:t=P:problem:kreska pseudotaktowa	!	!	!LO:TX:t=P:problem:kreska pseudotaktowa	!
4G\	.	.	2B\	.	.	2g/	-le-
!LO:TX:t=P:problem:kreska pseudotaktowa	!	!	!	!	!	!	!
4F\	.	.	.	.	.	.	.
4E\	.	.	2c,\	-re	.	1g	-lu-
4D\	.	.	.	.	.	.	.
4C/	.	.	4e\	al-	.	.	.
!LO:TX:t=P:problem:kreska pseudotaktowa	!	!	!LO:TX:t=P:problem:kreska pseudotaktowa	!	!	!	!
4BB/	.	.	4d\	.	.	.	.
=18-	=18-	=18-	=18-	=18-	=18-	=18-	=18-
4AA/	.	.	4c\	.	0ryy	2a,\	-ia
4GG/	.	.	4B\	.	.	.	.
!LO:TX:t=P:problem:kreska pseudotaktowa	!	!	!LO:TX:t=P:problem:kreska pseudotaktowa	!	!	!LO:TX:t=P:problem:kreska pseudotaktowa	!
2FF/	-le-	.	2A/	-le-	.	[<2cc\	al-
1GG	-lu-	.	1G	-lu-	.	2cc\]	.
.	.	.	.	.	.	2b\	-le-
=19-	=19-	=19-	=19-	=19-	=19-	=19-	=19-
1AA	.	.	1c	.	0ryy	2a\	-lu-
.	.	.	.	.	.	1cc	.
!	!	!	!LO:TX:t=P:problem:kreska pseudotaktowa	!	!	!	!
1GG	-ia.	4	0G	-ia.	.	.	.
!	!	!	!	!	!	!LO:TX:t=P:problem:kreska pseudotaktowa	!
.	.	3	.	.	.	2b\	.
=20-	=20-	=20-	=20-	=20-	=20-	=20-	=20-
!LO:TX:t=P:problem:kreska pseudotaktowa	!	!	!	!	!	!	!
1C	.	.	.	.	0ryy	2cc,\	-ia
.	.	.	.	.	.	4cc\	Re-
!	!	!	!	!	!	!LO:TX:t=P:problem:kreska pseudotaktowa	!
!	!	!	!	!	!	!LO:SIC:v:t=custos ff	!
.	.	.	.	.	.	4cc\	-sur-
!	!	!	!LO:LB:g=original	!	!	!LO:LB:g=original	!
!LO:TX:t=P:problem:kreska pseudotaktowa	!	!	!	!	!	!	!
0r	.	.	0r	.	.	2.ff\	-re-
.	.	.	.	.	.	4ee,\	-xit
=21-	=21-	=21-	=21-	=21-	=21-	=21-	=21-
.	.	.	.	.	0ryy	(>4dd\	si-
.	.	.	.	.	.	4ff\)	.
.	.	.	.	.	.	(>4ee\	-cut
!	!	!	!	!	!	!LO:TX:t=P:problem:kreska pseudotaktowa	!
.	.	.	.	.	.	4dd\)	.
!LO:LB:g=original	!	!	!	!	!	!	!
!	!	!	!LO:TX:t=P:problem:kreska pseudotaktowa	!	!	!	!
2r	.	.	1r	.	.	1ee	di-
4C/	Re-	.	.	.	.	.	.
!LO:TX:t=P:problem:kreska pseudotaktowa	!	!	!	!	!	!	!
4C/	-sur-	.	.	.	.	.	.
=22-	=22-	=22-	=22-	=22-	=22-	=22-	=22-
!	!	!	!	!	!	!LO:TX:t=P:problem:kreska pseudotaktowa	!
2.F\	-re-	.	2r	.	0ryy	1cc	-xit
.	.	.	4c\	Re-	.	.	.
!LO:TX:t=P:problem:kreska pseudotaktowa	!	!	!LO:TX:t=P:problem:kreska pseudotaktowa	!	!	!	!
4E\	-xit	.	4c\	-sur-	.	.	.
(>4D\	si-	.	2f\	-re-	.	2r	.
4F\)	.	.	.	.	.	.	.
!	!	!	!	!	!	!LO:TX:t=P:problem:kreska pseudotaktowa	!
(>4E\	-cut	.	2F/	-xit	.	2ff\	Re-
!LO:TX:t=P:problem:kreska pseudotaktowa	!	!	!	!	!	!	!
4D\)	.	.	.	.	.	.	.
=23-	=23-	=23-	=23-	=23-	=23-	=23-	=23-
!LO:TX:t=P:problem:kreska pseudotaktowa	!	!	!LO:TX:t=P:problem:kreska pseudotaktowa	!	!	!	!
1C	di-	4	1c	re-	0ryy	2ff\	-sur-
!	!	!	!	!	!	!LO:TX:t=P:problem:kreska pseudotaktowa	!
.	.	3	.	.	.	2ee\	-re-
!	!	!	!	!	!	!LO:TX:t=P:problem:kreska pseudotaktowa	!
2FF,/	-xit	.	2c\	-sur-	.	1ff,	-xit
4FF/	re-	.	1c\	-re-	.	.	.
!LO:TX:t=P:problem:kreska pseudotaktowa	!	!	!	!	!	!	!
4FF/	-ſur-	.	.	.	.	.	.
=24-	=24-	=24-	=24-	=24-	=24-	=24-	=24-
2C/	-re-	.	.	.	0ryy	2ee\	si-
!	!	!	!LO:TX:t=P:problem:kreska pseudotaktowa	!	!	!LO:TX:t=P:problem:kreska pseudotaktowa	!
2GG/	.	.	2Bn\	.	.	2dd\	-cut
!LO:TX:t=P:problem:kreska pseudotaktowa	!	!	!	!	!	!	!
1D	.	4	1A	.	.	1dd	di-
.	.	#3r	.	.	.	.	.
=25-	=25-	=25-	=25-	=25-	=25-	=25-	=25-
!	!	!	!LO:TX:t=P:problem:kreska pseudotaktowa	!	!	!LO:TX:t=P:problem:kreska pseudotaktowa	!
2GG,/	-xit	.	1G,	-xit	0ryy	1b	-xit
(>4G\	si-	.	.	.	.	.	.
!LO:TX:t=P:problem:kreska pseudotaktowa	!	!	!	!	!	!	!
4F\)	.	.	.	.	.	.	.
2E\	.	.	2c\	si-	.	2r	.
!LO:TX:t=P:problem:kreska pseudotaktowa	!	!	!	!	!	!	!
2A\	-cut	.	2c\	-cut	.	1cc\	si-
=26-	=26-	=26-	=26-	=26-	=26-	=26-	=26-
!	!	!	!LO:TX:t=P:problem:kreska pseudotaktowa	!	!	!	!
1G	di-	.	1G	di-	0ryy	.	.
!	!	!	!	!	!	!LO:TX:t=P:problem:kreska pseudotaktowa	!
.	.	.	.	.	.	2b\	-cut
!	!	!	!	!	!	!LO:TX:t=P:problem:kreska pseudotaktowa	!
2C,/	-xit,	.	2G,/	-xit	.	1cc	di-
(>4c\	al-	.	(>4e\	al-	.	.	.
!LO:TX:t=P:problem:kreska pseudotaktowa	!	!	!LO:TX:t=P:problem:kreska pseudotaktowa	!	!	!	!
4B\)	.	.	4d\)	.	.	.	.
=27-	=27-	=27-	=27-	=27-	=27-	=27-	=27-
4A\	.	.	4c\	.	0ryy	2cc,\	-xit
4G\	.	.	4B\	.	.	.	.
!LO:TX:t=P:problem:kreska pseudotaktowa	!	!	!LO:TX:t=P:problem:kreska pseudotaktowa	!	!	!	!
2F\	-le-	.	2A\	-le-	.	1cc	al-
1G	-lu-	.	1G	-lu-	.	.	.
!	!	!	!	!	!	!LO:TX:t=P:problem:kreska pseudotaktowa	!
.	.	.	.	.	.	2b\	-le-
=28-	=28-	=28-	=28-	=28-	=28-	=28-	=28-
!LO:TX:t=P:problem:kreska pseudotaktowa	!	!	!LO:TX:t=P:problem:kreska pseudotaktowa	!	!	!LO:TX:t=P:problem:kreska pseudotaktowa	!
1C	-ia	.	1G,	-ia	0ryy	1cc	-lu-
2r	.	.	1.e	al-	.	1g,	-ia
!LO:TX:t=P:problem:kreska pseudotaktowa	!	!	!	!	!	!	!
2E\	al-	.	.	.	.	.	.
=29-	=29-	=29-	=29-	=29-	=29-	=29-	=29-
1A	-le-	.	.	.	0ryy	2a\	al-
.	.	.	2c\	-le-	.	1cc	-le-
!LO:TX:t=P:problem:kreska pseudotaktowa	!	!	!	!	!	!	!
1G	-lu-	.	1G	-lu-	.	.	.
!	!	!	!	!	!	!LO:TX:t=P:problem:kreska pseudotaktowa	!
.	.	.	.	.	.	2b\	-lu-
=30-	=30-	=30-	=30-	=30-	=30-	=30-	=30-
!LO:TX:t=P:problem:kreska pseudotaktowa	!	!	!LO:TX:t=P:problem:kreska pseudotaktowa	!	!	!LO:TX:t=P:problem:kreska pseudotaktowa	!
0C	-ia.	.	0G	-ia.	0ryy	0cc	-ia
=31-	=31-	=31-	=31-	=31-	=31-	=31-	=31-
!LO:TX:t=P:problem:kreska pseudotaktowa	!	!	!LO:TX:t=P:problem:kreska pseudotaktowa	!	!	!LO:TX:t=P:problem:kreska pseudotaktowa	!
0r	.	.	1r	.	0ryy	1r	.
.	.	.	1c	O-	.	2r	.
.	.	.	.	.	.	1cc\	O-
=32-	=32-	=32-	=32-	=32-	=32-	=32-	=32-
!	!	!	!LO:TX:t=P:problem:kreska pseudotaktowa	!	!	!	!
2r	.	.	1G,	-ra	0ryy	.	.
!LO:TX:t=P:problem:kreska pseudotaktowa	!	!	!	!	!	!	!
!LO:SIC:v:t=custos C	!	!	!	!	!	!LO:TX:t=P:problem:kreska pseudotaktowa	!
2G\	O-	.	.	.	.	2b\	-ra
!LO:LB:g=original	!	!	!	!	!	!	!
!	!	!	!	!	!	!LO:TX:t=P:problem:kreska pseudotaktowa	!
!	!	!	!	!	!	!LO:SIC:v:t=custos a	!
2C/	-ra	.	1c	pro	.	1cc	O-
1c\	pro	.	.	.	.	.	.
!	!	!	!	!	!	!LO:LB:g=original	!
=33-	=33-	=33-	=33-	=33-	=33-	=33-	=33-
.	.	.	1.d	no-	0ryy	2a\	-ra
!LO:TX:t=P:problem:kreska pseudotaktowa	!	!	!	!	!	!LO:TX:t=P:problem:kreska pseudotaktowa	!
2B\	no-	.	.	.	.	2g\	pro
2c,\	-bis	.	.	.	.	1.g	no-
!	!	!	!LO:TX:t=P:problem:kreska pseudotaktowa	!	!	!	!
!LO:TX:t=P:problem:kreska pseudotaktowa	!	!	!LO:SIC:v:t=custos B	!	!	!	!
2C/	pro	.	2c\	-bis	.	.	.
!	!	!	!LO:LB:g=original	!	!	!	!
=34-	=34-	=34-	=34-	=34-	=34-	=34-	=34-
2G\	no-	.	2B\	DE-	0ryy	.	.
!LO:TX:t=P:problem:kreska pseudotaktowa	!	!	!	!	!	!	!
2G\	-bis	.	1c	.	.	2g/	-bis
!	!	!	!	!	!	!LO:TX:t=P:problem:kreska pseudotaktowa	!
1G	De-	.	.	.	.	1g	De-
!	!	!	!LO:TX:t=P:problem:kreska pseudotaktowa	!	!	!	!
.	.	.	2B\	.	.	.	.
=35-	=35-	=35-	=35-	=35-	=35-	=35-	=35-
!LO:TX:t=P:problem:kreska pseudotaktowa	!	!	!LO:TX:t=P:problem:kreska pseudotaktowa	!	!	!	!
1C	-um	.	1c	-UM	0ryy	2g,\	-um
.	.	.	.	.	.	2cc\	al-
!LO:TX:t=P:problem:kreska pseudotaktowa	!	!	!	!	!	!	!
0r	.	.	2r	.	.	(>4ee\	-le-
.	.	.	.	.	.	4ff\)	.
!	!	!	!LO:TX:t=P:problem:kreska pseudotaktowa	!	!	!	!
.	.	.	2c\	al-	.	(>4ee\	-lu-
!	!	!	!	!	!	!LO:TX:t=P:problem:kreska pseudotaktowa	!
.	.	.	.	.	.	4dd\)	.
=36-	=36-	=36-	=36-	=36-	=36-	=36-	=36-
.	.	.	4A/	-le-	0ryy	4cc\	-ia
.	.	.	4G/	.	.	4b\	.
.	.	.	(<4A/	-lu-	.	4cc\	.
!	!	!	!LO:TX:t=P:problem:kreska pseudotaktowa	!	!	!LO:TX:t=P:problem:kreska pseudotaktowa	!
.	.	.	4B/)	.	.	4dd\	.
2r	.	.	2G,/	-ia	.	2b,\	.
!LO:TX:t=P:problem:kreska pseudotaktowa	!	!	!	!	!	!LO:TX:t=P:problem:kreska pseudotaktowa	!
2C/	al-	.	4e\	al-	.	2cc\	al-
!	!	!	!LO:TX:t=P:problem:kreska pseudotaktowa	!	!	!	!
.	.	.	4d\	.	.	.	.
=37-	=37-	=37-	=37-	=37-	=37-	=37-	=37-
(>4F\	-le-	.	2c\	-le-	0ryy	2a\	-le-
4G\)	.	.	.	.	.	.	.
!	!	!	!LO:TX:t=P:problem:kreska pseudotaktowa	!	!	!	!
(>4A\	-lu-	.	2c\	-lu-	.	1ff	.
!LO:TX:t=P:problem:kreska pseudotaktowa	!	!	!	!	!	!	!
4B\)	.	.	.	.	.	.	.
2c,\	-ia	.	1c	-ia	.	.	.
!LO:TX:t=P:problem:kreska pseudotaktowa	!	!	!	!	!	!	!
2C/	al-	.	.	.	.	4ee\	-lu-
!	!	!	!	!	!	!LO:TX:t=P:problem:kreska pseudotaktowa	!
.	.	.	.	.	.	4dd\	.
=38-	=38-	=38-	=38-	=38-	=38-	=38-	=38-
!	!	!	!LO:TX:t=P:problem:kreska pseudotaktowa	!	!	!	!
(>4E\	-le-	.	1G	.	0ryy	4cc\	-ia
4F\)	.	.	.	.	.	4dd\	.
(>4G\	-lu-	.	.	.	.	4cc\	.
!	!	!	!	!	!	!LO:TX:t=P:problem:kreska pseudotaktowa	!
4E\)	.	.	.	.	.	4b\	.
!LO:TX:t=P:problem:kreska pseudotaktowa	!	!	!	!	!	!	!
1A,	-ia	.	1c,	.	.	4a\	al-
.	.	.	.	.	.	4b\	.
.	.	.	.	.	.	4cc\	.
!	!	!	!	!	!	!LO:TX:t=P:problem:kreska pseudotaktowa	!
.	.	.	.	.	.	4dd\	.
=39-	=39-	=39-	=39-	=39-	=39-	=39-	=39-
2G\	al-	.	2G/	al-	0ryy	2b\	-le-
!LO:TX:t=P:problem:kreska pseudotaktowa	!	!	!LO:TX:t=P:problem:kreska pseudotaktowa	!	!	!	!
2G\	-le-	.	2G/	-le-	.	1cc	.
1G	-lu-	.	1G	-lu-	.	.	.
!	!	!	!	!	!	!LO:TX:t=P:problem:kreska pseudotaktowa	!
.	.	.	.	.	.	2b\	-lu-
=40-	=40-	=40-	=40-	=40-	=40-	=40-	=40-
0C;>	-ia.	.	0G;>	-ia	0ryy	0cc;>	-ia.
==	==	==	==	==	==	==	==
*-	*-	*-	*-	*-	*-	*-	*-
!!!system-decoration: [(s1,s2,s3,s4)]
!!!RDF**kern: > = above
!!!RDF**kern: < = below
!!!EED: Mateusz Mrugas
!!!EST: 2021-03-20
!!!ENC: Andrzej Borzym
!!!END: 2021-03-04
